icons/role/tank.svg

<svg viewBox="0 0 12.7 12.7" xmlns="http://www.w3.org/2000/svg">
  <g>
    <path d="M 4.8507732,1.9544958 C 2.4250207,2.6227307 2.3945258,2.5772001 2.818477,3.1699296 3.2605415,3.7879925 2.8094379,4.5864248 2.2459554,4.4987907 1.1748291,4.3321984 2.7351451,7.9680449 4.6431944,9.7496697 5.1338433,10.199778 6.0964073,10.852136 6.3760033,10.980208 6.7038536,10.835176 7.6055654,10.196056 8.056806,9.7496697 9.9648557,7.9680449 11.525171,4.3321984 10.454045,4.4987907 9.8905667,4.5864248 9.4394578,3.7879925 9.881523,3.1699296 10.305474,2.5772001 10.274979,2.6227307 7.849227,1.9544958 c -1.0420975,-0.3535556 -2.0023126,-0.2695132 -2.9984538,0 z" />
  </g>
</svg>

<svg viewBox="0 0 12.7 12.7" xmlns="http://www.w3.org/2000/svg"><path d="M4.85 1.954c-2.425.669-2.455.623-2.032 1.216.443.618-.009 1.416-.572 1.329-1.071-.167.49 3.469 2.397 5.25.49.45 1.453 1.103 1.733 1.231.328-.145 1.23-.784 1.68-1.23 1.909-1.782 3.47-5.418 2.398-5.251-.563.087-1.015-.711-.572-1.33.423-.592.393-.546-2.033-1.215-1.042-.353-2.002-.269-2.998 0z"/></svg>
